assets/icon/feedback.svg

<svg height="200" viewBox="0 0 1024 1024" width="200" xmlns="http://www.w3.org/2000/svg"><path d="m740.864 112.128h-457.216c-63.488 0-114.688 51.2-114.688 114.176v457.216h686.08v-457.216c0-62.976-51.2-114.176-114.176-114.176zm-219.648 422.912h-189.952c-32.256 0-48.128-15.872-48.128-48.128.512-32.256 16.384-48.128 48.128-48.128h189.952c32.256 0 48.128 15.872 48.128 48.128 0 31.744-15.872 48.128-48.128 48.128zm171.008-212.48h-360.96c-32.256 0-48.128-15.872-48.128-48.128.512-32.256 16.384-48.128 48.128-48.128h360.96c32.256 0 48.128 15.872 48.128 48.128s-15.872 48.128-48.128 48.128z" fill="#ed8883"/><path d="m154.624 421.888 343.552 196.096c8.704 5.12 19.456 5.12 28.16 0l342.528-196.096c13.824-7.68 31.232-3.072 38.912 10.752 2.56 4.096 3.584 9.216 3.584 14.336v350.72c0 62.976-51.2 114.176-114.176 114.176h-570.88c-62.976 0-114.176-51.2-114.176-114.176v-350.72c0-15.872 12.8-28.672 28.672-28.672 4.608 0 9.728 1.536 13.824 3.584z" fill="#f1594b"/></svg>

<?xml version="1.0" standalone="no"?><!DOCTYPE svg PUBLIC "-//W3C//DTD SVG 1.1//EN" "http://www.w3.org/Graphics/SVG/1.1/DTD/svg11.dtd"><svg t="1623676798498" class="icon" viewBox="0 0 1024 1024" version="1.1" xmlns="http://www.w3.org/2000/svg" p-id="3513" xmlns:xlink="http://www.w3.org/1999/xlink" width="200" height="200"><defs><style type="text/css"></style></defs><path d="M740.864 112.128H283.648C220.16 112.128 168.96 163.328 168.96 226.304v457.216h686.08V226.304c0-62.976-51.2-114.176-114.176-114.176z m-219.648 422.912H331.264c-32.256 0-48.128-15.872-48.128-48.128 0.512-32.256 16.384-48.128 48.128-48.128h189.952c32.256 0 48.128 15.872 48.128 48.128 0 31.744-15.872 48.128-48.128 48.128zM692.224 322.56H331.264c-32.256 0-48.128-15.872-48.128-48.128 0.512-32.256 16.384-48.128 48.128-48.128h360.96c32.256 0 48.128 15.872 48.128 48.128 0 32.256-15.872 48.128-48.128 48.128z" fill="#ED8883" p-id="3514"></path><path d="M154.624 421.888l343.552 196.096c8.704 5.12 19.456 5.12 28.16 0l342.528-196.096c13.824-7.68 31.232-3.072 38.912 10.752 2.56 4.096 3.584 9.216 3.584 14.336v350.72c0 62.976-51.2 114.176-114.176 114.176H226.304c-62.976 0-114.176-51.2-114.176-114.176V446.976c0-15.872 12.8-28.672 28.672-28.672 4.608 0 9.728 1.536 13.824 3.584z" fill="#F1594B" p-id="3515"></path></svg>
